storage/app/icons/phosphoricons/duotone/file-ppt-duotone.svg

<svg xmlns="http://www.w3.org/2000/svg" fill="currentColor" viewBox="0 0 256 256"><path d="M208 88h-56V32Z" opacity=".2"/><path d="M224 152a8 8 0 0 1-8 8h-12v48a8 8 0 0 1-16 0v-48h-12a8 8 0 0 1 0-16h40a8 8 0 0 1 8 8M92 172a28 28 0 0 1-28 28h-8v8a8 8 0 0 1-16 0v-56a8 8 0 0 1 8-8h16a28 28 0 0 1 28 28m-16 0a12 12 0 0 0-12-12h-8v24h8a12 12 0 0 0 12-12m84 0a28 28 0 0 1-28 28h-8v8a8 8 0 0 1-16 0v-56a8 8 0 0 1 8-8h16a28 28 0 0 1 28 28m-16 0a12 12 0 0 0-12-12h-8v24h8a12 12 0 0 0 12-12M40 112V40a16 16 0 0 1 16-16h96a8 8 0 0 1 5.66 2.34l56 56A8 8 0 0 1 216 88v24a8 8 0 0 1-16 0V96h-48a8 8 0 0 1-8-8V40H56v72a8 8 0 0 1-16 0m120-32h28.69L160 51.31Z"/></svg>

<svg xmlns="http://www.w3.org/2000/svg" viewBox="0 0 256 256" fill="currentColor"><path d="M208,88H152V32Z" opacity="0.2"/><path d="M224,152a8,8,0,0,1-8,8H204v48a8,8,0,0,1-16,0V160H176a8,8,0,0,1,0-16h40A8,8,0,0,1,224,152ZM92,172a28,28,0,0,1-28,28H56v8a8,8,0,0,1-16,0V152a8,8,0,0,1,8-8H64A28,28,0,0,1,92,172Zm-16,0a12,12,0,0,0-12-12H56v24h8A12,12,0,0,0,76,172Zm84,0a28,28,0,0,1-28,28h-8v8a8,8,0,0,1-16,0V152a8,8,0,0,1,8-8h16A28,28,0,0,1,160,172Zm-16,0a12,12,0,0,0-12-12h-8v24h8A12,12,0,0,0,144,172ZM40,112V40A16,16,0,0,1,56,24h96a8,8,0,0,1,5.66,2.34l56,56A8,8,0,0,1,216,88v24a8,8,0,0,1-16,0V96H152a8,8,0,0,1-8-8V40H56v72a8,8,0,0,1-16,0ZM160,80h28.69L160,51.31Z"/></svg>
